picto/sectors-g-it-small-framed.svg

<svg class="color-immutable" width="30" height="30" viewBox="0 0 30 30" fill="none" xmlns="http://www.w3.org/2000/svg"><path d="M30 0H0V30H30V0Z" fill="#2D327D"/><path d="M25.5 3C26.325 3 27 3.675 27 4.5V25.5C27 26.325 26.325 27 25.5 27H4.5C3.675 27 3 26.325 3 25.5V4.5C3 3.675 3.675 3 4.5 3H25.5ZM25.5 2.625H4.5C3.46613 2.625 2.625 3.46613 2.625 4.5V25.5C2.625 26.5339 3.46613 27.375 4.5 27.375H25.5C26.5339 27.375 27.375 26.5339 27.375 25.5V4.5C27.375 3.46613 26.5339 2.625 25.5 2.625Z" fill="white"/><path d="M20.0811 17.9418V24.0019H18.5122L18.2661 22.7176C17.4356 23.7533 16.3152 24.2711 14.9054 24.2711C13.1878 24.2711 11.8317 23.6354 10.8372 22.3638C10.0116 21.3026 9.599 19.9927 9.599 18.434C9.599 16.6652 10.1373 15.2169 11.214 14.0889C12.2239 13.0226 13.5288 12.4893 15.1284 12.4893C16.605 12.4893 17.8071 12.9661 18.7352 13.9197C19.4274 14.6375 19.8246 15.4835 19.9272 16.4576H17.5509C17.4278 15.8527 17.1522 15.3809 16.7242 15.0425C16.296 14.7041 15.7539 14.5349 15.0976 14.5349C14.1029 14.5349 13.3338 14.9195 12.7905 15.6885C12.3137 16.3602 12.0753 17.2677 12.0753 18.4109C12.0753 19.5287 12.2983 20.4156 12.7443 21.0719C13.2929 21.8768 14.1029 22.2793 15.1745 22.2793C15.9486 22.2793 16.583 22.0461 17.0779 21.5795C17.5726 21.113 17.8327 20.5003 17.8584 19.7414H15.3591V17.9419H20.0811V17.9418Z" fill="white"/><path d="M7.812 6.666H7.34445C7.33522 6.55628 7.29442 6.47243 7.2222 6.41453C7.14997 6.35663 7.04865 6.3276 6.91845 6.3276C6.80257 6.3276 6.71257 6.3504 6.64852 6.39608C6.58447 6.44175 6.55237 6.5055 6.55237 6.58755C6.55237 6.66135 6.58312 6.71468 6.64462 6.74753C6.7041 6.78038 6.85485 6.8265 7.0968 6.88598C7.3521 6.94958 7.52902 7.01363 7.62742 7.0782C7.80892 7.19715 7.89967 7.36275 7.89967 7.575C7.89967 7.8078 7.8084 7.99133 7.62592 8.12565C7.46497 8.24355 7.24702 8.3025 6.97222 8.3025C6.66667 8.3025 6.4293 8.23275 6.2601 8.09333C6.0909 7.9539 6.00322 7.75545 5.99707 7.49805H6.48615C6.49335 7.62315 6.5256 7.71593 6.58305 7.77645C6.67327 7.87283 6.80917 7.92105 6.99067 7.92105C7.11375 7.92105 7.2111 7.89698 7.28287 7.84875C7.36387 7.7934 7.40437 7.71803 7.40437 7.62263C7.40437 7.52723 7.34745 7.45755 7.23367 7.41345C7.17112 7.38885 7.02345 7.34423 6.79072 7.27965C6.64515 7.23968 6.5313 7.20173 6.44925 7.1658C6.3672 7.12988 6.30157 7.0899 6.25237 7.0458C6.13755 6.94328 6.0801 6.80175 6.0801 6.6213C6.0801 6.40493 6.1698 6.2337 6.34927 6.10755C6.50205 5.99985 6.7005 5.94608 6.94455 5.94608C7.15882 5.94608 7.3383 5.9886 7.4829 6.07373C7.69102 6.19583 7.80075 6.39323 7.812 6.666Z" fill="white"/><path d="M9.69612 7.72575C9.67257 7.8201 9.62997 7.90875 9.56847 7.99185C9.4208 8.19383 9.20855 8.29485 8.93172 8.29485C8.68152 8.29485 8.48105 8.21588 8.3303 8.058C8.2565 7.98113 8.2001 7.88828 8.1611 7.7796C8.11902 7.66373 8.09802 7.54275 8.09802 7.4166C8.09802 7.17255 8.1683 6.9675 8.30877 6.80138C8.46567 6.61575 8.6687 6.52298 8.91785 6.52298C9.11885 6.52298 9.29007 6.585 9.4316 6.70905C9.53315 6.79823 9.60695 6.90825 9.65307 7.03898C9.6992 7.1697 9.7223 7.33403 9.7223 7.53196H8.55185C8.55597 7.614 8.5688 7.68218 8.59032 7.73655C8.65085 7.88318 8.76567 7.95653 8.93487 7.95653C9.0179 7.95653 9.08562 7.9383 9.1379 7.90193C9.19017 7.86555 9.23322 7.80683 9.26712 7.72583H9.69612V7.72575ZM9.26705 7.23203C9.25887 7.15103 9.24042 7.08383 9.2117 7.0305C9.18297 6.97823 9.14225 6.93668 9.08945 6.90593C9.03665 6.87518 8.97897 6.8598 8.91642 6.8598C8.81697 6.8598 8.73492 6.8931 8.67035 6.95978C8.60577 7.02645 8.5673 7.1172 8.555 7.23203H9.26705Z" fill="white"/><path d="M10.8636 6.56602V6.88132H10.5298V7.6704C10.5298 7.76475 10.5385 7.82475 10.556 7.85032C10.5816 7.88722 10.639 7.90567 10.7283 7.90567C10.7631 7.90567 10.8082 7.90312 10.8636 7.89795V8.2548C10.7631 8.26605 10.6709 8.27175 10.5868 8.27175C10.4597 8.27175 10.3628 8.25742 10.2961 8.2287C10.1925 8.18257 10.128 8.0985 10.1023 7.97647C10.0911 7.9242 10.0854 7.81597 10.0854 7.65195V6.88132H9.81311V6.56602H10.0854V6.17227H10.5299V6.56602H10.8636Z" fill="white"/><path d="M12.0586 6.56602V6.88132H11.7249V7.6704C11.7249 7.76475 11.7336 7.82475 11.7511 7.85032C11.7767 7.88722 11.8341 7.90567 11.9233 7.90567C11.9582 7.90567 12.0033 7.90312 12.0587 7.89795V8.2548C11.9582 8.26605 11.866 8.27175 11.7819 8.27175C11.6548 8.27175 11.5579 8.25742 11.4912 8.2287C11.3876 8.18257 11.323 8.0985 11.2974 7.97647C11.2861 7.9242 11.2804 7.81597 11.2804 7.65195V6.88132H11.0082V6.56602H11.2804V6.17227H11.725V6.56602H12.0586Z" fill="white"/><path d="M13.0646 6.5229C13.3086 6.5229 13.508 6.6039 13.6629 6.7659C13.8157 6.92588 13.8921 7.13918 13.8921 7.40573C13.8921 7.68158 13.8106 7.90148 13.6475 8.06558C13.4948 8.21835 13.2959 8.29478 13.0508 8.29478C12.7893 8.29478 12.5811 8.20965 12.4263 8.03948C12.2786 7.87748 12.2048 7.66725 12.2048 7.40888C12.2048 7.15455 12.2766 6.94793 12.4202 6.789C12.579 6.61163 12.7938 6.5229 13.0646 6.5229ZM13.0415 6.87053C12.9236 6.87053 12.8297 6.91823 12.76 7.01355C12.6893 7.10993 12.6539 7.2417 12.6539 7.40888C12.6539 7.5822 12.6887 7.71495 12.7585 7.80728C12.8303 7.90058 12.9282 7.94723 13.0523 7.94723C13.1681 7.94723 13.2599 7.9047 13.3276 7.81958C13.4045 7.72523 13.4429 7.58835 13.4429 7.40888C13.4429 7.24073 13.4091 7.11 13.3414 7.0167C13.2707 6.91928 13.1707 6.87053 13.0415 6.87053Z" fill="white"/><path d="M15.2302 6.54143V6.97366C15.1585 6.96031 15.1006 6.95363 15.0565 6.95363C14.8903 6.95363 14.7683 7.02338 14.6904 7.16281C14.6463 7.24073 14.6242 7.37093 14.6242 7.55348V8.24873H14.1782V6.56911H14.6027V6.87518C14.7237 6.64756 14.8996 6.53371 15.1303 6.53371C15.159 6.53371 15.1923 6.53626 15.2302 6.54143Z" fill="white"/><path d="M16.9406 7.72575C16.9171 7.8201 16.8745 7.90875 16.813 7.99185C16.6653 8.19383 16.4531 8.29485 16.1762 8.29485C15.926 8.29485 15.7256 8.21588 15.5748 8.058C15.501 7.98113 15.4446 7.88828 15.4056 7.7796C15.3635 7.66373 15.3425 7.54275 15.3425 7.4166C15.3425 7.17255 15.4128 6.9675 15.5533 6.80138C15.7102 6.61575 15.9132 6.52298 16.1624 6.52298C16.3634 6.52298 16.5346 6.585 16.6761 6.70905C16.7777 6.79823 16.8515 6.90825 16.8976 7.03898C16.9437 7.1697 16.9668 7.33403 16.9668 7.53196H15.7964C15.8005 7.614 15.8133 7.68218 15.8348 7.73655C15.8954 7.88318 16.0102 7.95653 16.1794 7.95653C16.2624 7.95653 16.3301 7.9383 16.3824 7.90193C16.4347 7.86555 16.4777 7.80683 16.5116 7.72583H16.9406V7.72575ZM16.5115 7.23203C16.5033 7.15103 16.4849 7.08383 16.4561 7.0305C16.4274 6.97823 16.3866 6.93668 16.3338 6.90593C16.281 6.87518 16.2233 6.8598 16.1608 6.8598C16.0613 6.8598 15.9793 6.8931 15.9147 6.95978C15.8501 7.02645 15.8117 7.1172 15.7994 7.23203H16.5115Z" fill="white"/></svg>

<svg class="color-immutable" width="30" height="30" viewBox="0 0 30 30" fill="none" xmlns="http://www.w3.org/2000/svg"><g clip-path="url(#a)"><path d="M30 0H0v30h30V0Z" fill="#2D327D"/><path d="M25.5 3c.825 0 1.5.675 1.5 1.5v21c0 .825-.675 1.5-1.5 1.5h-21c-.825 0-1.5-.675-1.5-1.5v-21C3 3.675 3.675 3 4.5 3h21Zm0-.375h-21A1.877 1.877 0 0 0 2.625 4.5v21c0 1.034.841 1.875 1.875 1.875h21a1.877 1.877 0 0 0 1.875-1.875v-21A1.877 1.877 0 0 0 25.5 2.625Z" fill="#fff"/><path d="M20.081 17.942v6.06h-1.569l-.246-1.284c-.83 1.035-1.95 1.553-3.36 1.553-1.718 0-3.074-.636-4.069-1.907-.825-1.061-1.238-2.371-1.238-3.93 0-1.769.538-3.217 1.615-4.345 1.01-1.066 2.315-1.6 3.914-1.6 1.477 0 2.68.477 3.607 1.43a4.198 4.198 0 0 1 1.192 2.539h-2.376c-.123-.605-.399-1.077-.827-1.415-.428-.339-.97-.508-1.626-.508-.995 0-1.764.384-2.308 1.153-.476.672-.715 1.58-.715 2.723 0 1.118.223 2.005.67 2.66.548.806 1.358 1.208 2.43 1.208.774 0 1.408-.233 1.903-.7.495-.466.755-1.079.78-1.838H15.36v-1.8h4.722ZM7.812 6.666h-.468a.343.343 0 0 0-.122-.251.474.474 0 0 0-.304-.087.46.46 0 0 0-.27.068.222.222 0 0 0-.096.192c0 .073.031.127.093.16.06.032.21.079.452.138.255.064.432.128.53.192a.563.563 0 0 1 .273.497.647.647 0 0 1-.274.55c-.161.119-.379.178-.654.178-.305 0-.543-.07-.712-.21-.17-.14-.257-.338-.263-.595h.49c.006.125.039.218.096.278.09.097.226.145.408.145.123 0 .22-.024.292-.072a.26.26 0 0 0 .121-.226c0-.096-.057-.165-.17-.21a6.006 6.006 0 0 0-.443-.133 2.616 2.616 0 0 1-.342-.114.736.736 0 0 1-.197-.12.54.54 0 0 1-.172-.425c0-.216.09-.387.27-.513.152-.108.35-.162.595-.162.214 0 .393.043.538.128.208.122.318.32.329.592ZM9.696 7.726a.75.75 0 0 1-.128.266c-.147.202-.36.303-.636.303-.25 0-.451-.08-.602-.237a.773.773 0 0 1-.169-.278 1.055 1.055 0 0 1-.063-.363c0-.244.07-.45.21-.616a.76.76 0 0 1 .61-.278c.2 0 .372.062.514.186.101.09.175.2.221.33.046.13.07.295.07.493H8.551a.65.65 0 0 0 .038.205c.06.146.176.22.345.22.083 0 .15-.019.203-.055a.39.39 0 0 0 .13-.176h.428Zm-.429-.494a.539.539 0 0 0-.055-.202.338.338 0 0 0-.295-.17c-.1 0-.182.033-.247.1a.446.446 0 0 0-.115.272h.712ZM10.864 6.566v.315h-.334v.79c0 .094.009.154.026.18.026.036.083.055.172.055.035 0 .08-.003.136-.008v.357c-.1.011-.193.017-.277.017a.764.764 0 0 1-.29-.043.332.332 0 0 1-.195-.253 1.939 1.939 0 0 1-.017-.324v-.77h-.272v-.316h.272v-.394h.445v.394h.334ZM12.059 6.566v.315h-.334v.79c0 .094.009.154.026.18.026.036.083.055.172.055.035 0 .08-.003.136-.008v.357c-.1.011-.193.017-.277.017a.764.764 0 0 1-.29-.043.332.332 0 0 1-.195-.253 1.924 1.924 0 0 1-.017-.324v-.77h-.272v-.316h.272v-.394h.445v.394h.334ZM13.065 6.523c.244 0 .443.08.598.243.153.16.23.373.23.64 0 .276-.082.495-.245.66a.807.807 0 0 1-.597.229c-.262 0-.47-.085-.625-.256-.147-.162-.221-.372-.221-.63 0-.254.072-.461.215-.62.159-.177.374-.266.645-.266Zm-.024.348a.331.331 0 0 0-.281.143.656.656 0 0 0-.106.395c0 .173.035.306.104.398a.35.35 0 0 0 .294.14.333.333 0 0 0 .276-.127c.077-.095.115-.232.115-.411 0-.168-.034-.299-.102-.392a.349.349 0 0 0-.3-.146ZM15.23 6.541v.433a.995.995 0 0 0-.174-.02.39.39 0 0 0-.366.209c-.044.078-.066.208-.066.39v.696h-.446v-1.68h.425v.306c.12-.227.297-.341.527-.341a.75.75 0 0 1 .1.007ZM16.94 7.726a.75.75 0 0 1-.127.266c-.148.202-.36.303-.637.303-.25 0-.45-.08-.601-.237a.773.773 0 0 1-.17-.278 1.055 1.055 0 0 1-.063-.363c0-.244.07-.45.211-.616a.76.76 0 0 1 .61-.278c.2 0 .372.062.513.186.102.09.176.2.222.33.046.13.069.295.069.493h-1.17a.65.65 0 0 0 .038.205c.06.146.175.22.344.22.083 0 .151-.019.203-.055a.39.39 0 0 0 .13-.176h.429Zm-.428-.494a.537.537 0 0 0-.056-.202.338.338 0 0 0-.295-.17c-.1 0-.182.033-.246.1a.446.446 0 0 0-.116.272h.713Z" fill="#fff"/></g><defs><clipPath id="a"><path fill="#fff" d="M0 0h30v30H0z"/></clipPath></defs></svg>
